48x48/apps/springlobby.svg

<svg viewBox="0 0 48 48"><defs><linearGradient id="linearGradient3764" x1="1" x2="47" gradientUnits="userSpaceOnUse" gradientTransform="matrix(0,-1,1,0,-1.5e-6,47.999998)"><stop stop-color="#e4e4e4" stop-opacity="1"/><stop offset="1" stop-color="#eee" stop-opacity="1"/></linearGradient><clipPath id="clipPath-711172767"><g transform="translate(0,-1004.3622)"><path d="m -24 13 c 0 1.105 -0.672 2 -1.5 2 -0.828 0 -1.5 -0.895 -1.5 -2 0 -1.105 0.672 -2 1.5 -2 0.828 0 1.5 0.895 1.5 2 z" transform="matrix(15.333333,0,0,11.5,414.99999,878.8622)" fill="#1890d0"/></g></clipPath><clipPath id="clipPath-717644577"><g transform="translate(0,-1004.3622)"><path d="m -24 13 c 0 1.105 -0.672 2 -1.5 2 -0.828 0 -1.5 -0.895 -1.5 -2 0 -1.105 0.672 -2 1.5 -2 0.828 0 1.5 0.895 1.5 2 z" transform="matrix(15.333333,0,0,11.5,414.99999,878.8622)" fill="#1890d0"/></g></clipPath></defs><g><path d="m 36.31 5 c 5.859 4.062 9.688 10.831 9.688 18.5 c 0 12.426 -10.07 22.5 -22.5 22.5 c -7.669 0 -14.438 -3.828 -18.5 -9.688 c 1.037 1.822 2.306 3.499 3.781 4.969 c 4.085 3.712 9.514 5.969 15.469 5.969 c 12.703 0 23 -10.298 23 -23 c 0 -5.954 -2.256 -11.384 -5.969 -15.469 c -1.469 -1.475 -3.147 -2.744 -4.969 -3.781 z m 4.969 3.781 c 3.854 4.113 6.219 9.637 6.219 15.719 c 0 12.703 -10.297 23 -23 23 c -6.081 0 -11.606 -2.364 -15.719 -6.219 c 4.16 4.144 9.883 6.719 16.219 6.719 c 12.703 0 23 -10.298 23 -23 c 0 -6.335 -2.575 -12.06 -6.719 -16.219 z" opacity="0.05"/><path d="m 41.28 8.781 c 3.712 4.085 5.969 9.514 5.969 15.469 c 0 12.703 -10.297 23 -23 23 c -5.954 0 -11.384 -2.256 -15.469 -5.969 c 4.113 3.854 9.637 6.219 15.719 6.219 c 12.703 0 23 -10.298 23 -23 c 0 -6.081 -2.364 -11.606 -6.219 -15.719 z" opacity="0.1"/><path d="m 31.25 2.375 c 8.615 3.154 14.75 11.417 14.75 21.13 c 0 12.426 -10.07 22.5 -22.5 22.5 c -9.708 0 -17.971 -6.135 -21.12 -14.75 a 23 23 0 0 0 44.875 -7 a 23 23 0 0 0 -16 -21.875 z" opacity="0.2"/></g><g><path d="m 24 1 c 12.703 0 23 10.297 23 23 c 0 12.703 -10.297 23 -23 23 -12.703 0 -23 -10.297 -23 -23 0 -12.703 10.297 -23 23 -23 z" fill="url(#linearGradient3764)" fill-opacity="1"/></g><g/><g><g clip-path="url(#clipPath-711172767)"><g transform="translate(1,1)"><g opacity="0.1"><!-- color: #eeeeee --><g><path d="m 17 28 l -6 -5 l 8 -2 l -2 7" fill="#000" stroke="none" fill-rule="nonzero" fill-opacity="1"/><path d="m 31 28 l 6 -5 l -8 -2 l 1.996 7" fill="#000" stroke="none" fill-rule="nonzero" fill-opacity="1"/><path d="m 15 16 l 1.234 7 l 5.766 -3 l -7 -4" fill="#000" stroke="none" fill-rule="nonzero" fill-opacity="1"/><path d="m 33 16 l -1.234 7 l -5.766 -3 l 7 -4" fill="#000" stroke="none" fill-rule="nonzero" fill-opacity="1"/><path d="m 24 13 l -5 8 l 10 0 l -5 -8" fill="#000" stroke="none" fill-rule="nonzero" fill-opacity="1"/><path d="m 33 27 c 0 4.969 -4.03 9 -9 9 c -4.969 0 -9 -4.03 -9 -9 c 0 -4.969 4.03 -9 9 -9 c 4.969 0 9 4.03 9 9 m 0 0" fill="#000" stroke="none" fill-rule="nonzero" fill-opacity="1"/><path d="m 21.992 25 c 0 0.551 -0.445 1 -0.996 1 c -0.551 0 -0.996 -0.449 -0.996 -1 c 0 -0.551 0.445 -1 0.996 -1 c 0.551 0 0.996 0.449 0.996 1 m 0 0" fill="#000" stroke="none" fill-rule="nonzero" fill-opacity="1"/><path d="m 27 24 c -0.551 0 -1 0.449 -1 1 l 2 0 c 0 -0.551 -0.449 -1 -1 -1 m 0 0" fill="#000" stroke="none" fill-rule="nonzero" fill-opacity="1"/><path d="m 5.672 8.382 c 0.114 0.219 0.298 0.4 0.519 0.509 c 0.218 0.109 0.476 0.147 0.719 0.105 c 0.245 -0.042 0.477 -0.165 0.639 -0.355 c 0.139 -0.161 0.223 -0.365 0.261 -0.573 c 0.021 -0.105 0.031 -0.212 0.03 -0.32" transform="matrix(3.543307,0,0,3.543307,0,0)" stroke-opacity="1" fill="#000" stroke="#2d2d2d" stroke-linejoin="miter" stroke-linecap="butt" stroke-width="0.282" stroke-miterlimit="4"/><path d="m 21 21.25 c -0.359 0.074 -0.703 0.238 -0.98 0.477 c -0.102 0.086 -0.195 0.18 -0.281 0.277 c -0.473 0.551 -0.742 1.273 -0.738 1.996" stroke-opacity="1" fill="#000" stroke="#2d2d2d" stroke-linejoin="miter" stroke-linecap="butt" stroke-width="1" stroke-miterlimit="4"/></g></g></g></g></g><g><g clip-path="url(#clipPath-717644577)"><!-- color: #eeeeee --><g><path d="m 17 28 l -6 -5 l 8 -2 l -2 7" fill="#eb805f" stroke="none" fill-rule="nonzero" fill-opacity="1"/><path d="m 31 28 l 6 -5 l -8 -2 l 1.996 7" fill="#eb805f" stroke="none" fill-rule="nonzero" fill-opacity="1"/><path d="m 15 16 l 1.234 7 l 5.766 -3 l -7 -4" fill="#eb805f" stroke="none" fill-rule="nonzero" fill-opacity="1"/><path d="m 33 16 l -1.234 7 l -5.766 -3 l 7 -4" fill="#eb805f" stroke="none" fill-rule="nonzero" fill-opacity="1"/><path d="m 24 13 l -5 8 l 10 0 l -5 -8" fill="#eb805f" stroke="none" fill-rule="nonzero" fill-opacity="1"/><path d="m 33 27 c 0 4.969 -4.03 9 -9 9 c -4.969 0 -9 -4.03 -9 -9 c 0 -4.969 4.03 -9 9 -9 c 4.969 0 9 4.03 9 9 m 0 0" fill="#fc0" stroke="none" fill-rule="nonzero" fill-opacity="1"/><path d="m 21.992 25 c 0 0.551 -0.445 1 -0.996 1 c -0.551 0 -0.996 -0.449 -0.996 -1 c 0 -0.551 0.445 -1 0.996 -1 c 0.551 0 0.996 0.449 0.996 1 m 0 0" fill="#2d2d2d" stroke="none" fill-rule="nonzero" fill-opacity="1"/><path d="m 27 24 c -0.551 0 -1 0.449 -1 1 l 2 0 c 0 -0.551 -0.449 -1 -1 -1 m 0 0" fill="#2d2d2d" stroke="none" fill-rule="nonzero" fill-opacity="1"/><path d="m 5.672 8.382 c 0.114 0.219 0.298 0.4 0.519 0.509 c 0.218 0.109 0.476 0.147 0.719 0.105 c 0.245 -0.042 0.477 -0.165 0.639 -0.355 c 0.139 -0.161 0.223 -0.365 0.261 -0.573 c 0.021 -0.105 0.031 -0.212 0.03 -0.32" transform="matrix(3.543307,0,0,3.543307,0,0)" stroke-opacity="1" fill="none" stroke="#2d2d2d" stroke-linejoin="miter" stroke-linecap="butt" stroke-width="0.282" stroke-miterlimit="4"/><path d="m 21 21.25 c -0.359 0.074 -0.703 0.238 -0.98 0.477 c -0.102 0.086 -0.195 0.18 -0.281 0.277 c -0.473 0.551 -0.742 1.273 -0.738 1.996" stroke-opacity="1" fill="none" stroke="#2d2d2d" stroke-linejoin="miter" stroke-linecap="butt" stroke-width="1" stroke-miterlimit="4"/></g></g></g><g><path d="m 40.03 7.531 c 3.712 4.084 5.969 9.514 5.969 15.469 0 12.703 -10.297 23 -23 23 c -5.954 0 -11.384 -2.256 -15.469 -5.969 4.178 4.291 10.01 6.969 16.469 6.969 c 12.703 0 23 -10.298 23 -23 0 -6.462 -2.677 -12.291 -6.969 -16.469 z" opacity="0.1"/></g></svg>

<?xml version="1.0" encoding="UTF-8" standalone="no"?>
<svg
   xmlns:dc="http://purl.org/dc/elements/1.1/"
   xmlns:cc="http://creativecommons.org/ns#"
   xmlns:rdf="http://www.w3.org/1999/02/22-rdf-syntax-ns#"
   xmlns:svg="http://www.w3.org/2000/svg"
   xmlns="http://www.w3.org/2000/svg"
   xmlns:sodipodi="http://sodipodi.sourceforge.net/DTD/sodipodi-0.dtd"
   xmlns:inkscape="http://www.inkscape.org/namespaces/inkscape"
   viewBox="0 0 48 48"
   id="svg2"
   version="1.1"
   inkscape:version="0.48.4 r9939"
   width="100%"
   height="100%"
   sodipodi:docname="springlobby.svg">
  <metadata
     id="metadata97">
    <rdf:RDF>
      <cc:Work
         rdf:about="">
        <dc:format>image/svg+xml</dc:format>
        <dc:type
           rdf:resource="http://purl.org/dc/dcmitype/StillImage" />
      </cc:Work>
    </rdf:RDF>
  </metadata>
  <sodipodi:namedview
     pagecolor="#ffffff"
     bordercolor="#666666"
     borderopacity="1"
     objecttolerance="10"
     gridtolerance="10"
     guidetolerance="10"
     inkscape:pageopacity="0"
     inkscape:pageshadow="2"
     inkscape:window-width="1375"
     inkscape:window-height="876"
     id="namedview95"
     showgrid="false"
     inkscape:zoom="4.9166667"
     inkscape:cx="-0.20338983"
     inkscape:cy="24"
     inkscape:window-x="65"
     inkscape:window-y="24"
     inkscape:window-maximized="1"
     inkscape:current-layer="svg2" />
  <defs
     id="defs4">
    <linearGradient
       id="linearGradient3764"
       x1="1"
       x2="47"
       gradientUnits="userSpaceOnUse"
       gradientTransform="matrix(0,-1,1,0,-1.5e-6,47.999998)">
      <stop
         stop-color="#e4e4e4"
         stop-opacity="1"
         id="stop7" />
      <stop
         offset="1"
         stop-color="#eee"
         stop-opacity="1"
         id="stop9" />
    </linearGradient>
    <clipPath
       id="clipPath-711172767">
      <g
         transform="translate(0,-1004.3622)"
         id="g12">
        <path
           d="m -24 13 c 0 1.105 -0.672 2 -1.5 2 -0.828 0 -1.5 -0.895 -1.5 -2 0 -1.105 0.672 -2 1.5 -2 0.828 0 1.5 0.895 1.5 2 z"
           transform="matrix(15.333333,0,0,11.5,414.99999,878.8622)"
           fill="#1890d0"
           id="path14" />
      </g>
    </clipPath>
    <clipPath
       id="clipPath-717644577">
      <g
         transform="translate(0,-1004.3622)"
         id="g17">
        <path
           d="m -24 13 c 0 1.105 -0.672 2 -1.5 2 -0.828 0 -1.5 -0.895 -1.5 -2 0 -1.105 0.672 -2 1.5 -2 0.828 0 1.5 0.895 1.5 2 z"
           transform="matrix(15.333333,0,0,11.5,414.99999,878.8622)"
           fill="#1890d0"
           id="path19" />
      </g>
    </clipPath>
    <linearGradient
       id="linearGradient3764-7"
       x1="1"
       x2="47"
       gradientUnits="userSpaceOnUse"
       gradientTransform="matrix(0,-1,1,0,-1.5e-6,47.999998)">
      <stop
         stop-color="#b5945b"
         stop-opacity="1"
         id="stop7-8" />
      <stop
         offset="1"
         stop-color="#bb9e69"
         stop-opacity="1"
         id="stop9-2" />
    </linearGradient>
    <clipPath
       id="clipPath-899834956">
      <g
         transform="translate(0,-1004.3622)"
         id="g12-9">
        <path
           d="m -24 13 c 0 1.105 -0.672 2 -1.5 2 -0.828 0 -1.5 -0.895 -1.5 -2 0 -1.105 0.672 -2 1.5 -2 0.828 0 1.5 0.895 1.5 2 z"
           transform="matrix(15.333333,0,0,11.5,414.99999,878.8622)"
           fill="#1890d0"
           id="path14-5" />
      </g>
    </clipPath>
    <clipPath
       id="clipPath-909443126">
      <g
         transform="translate(0,-1004.3622)"
         id="g17-7">
        <path
           d="m -24 13 c 0 1.105 -0.672 2 -1.5 2 -0.828 0 -1.5 -0.895 -1.5 -2 0 -1.105 0.672 -2 1.5 -2 0.828 0 1.5 0.895 1.5 2 z"
           transform="matrix(15.333333,0,0,11.5,414.99999,878.8622)"
           fill="#1890d0"
           id="path19-8" />
      </g>
    </clipPath>
    <clipPath
       id="clipPath-909443126-7">
      <g
         transform="translate(0,-1004.3622)"
         id="g17-2">
        <path
           style="fill:#1890d0"
           inkscape:connector-curvature="0"
           d="m -24,13 c 0,1.105 -0.672,2 -1.5,2 -0.828,0 -1.5,-0.895 -1.5,-2 0,-1.105 0.672,-2 1.5,-2 0.828,0 1.5,0.895 1.5,2 z"
           transform="matrix(15.333333,0,0,11.5,414.99999,878.8622)"
           id="path19-3" />
      </g>
    </clipPath>
    <linearGradient
       id="linearGradient3759">
      <stop
         id="stop3761"
         offset="0"
         style="stop-color:#a75e15;stop-opacity:1;" />
      <stop
         id="stop3763"
         offset="1"
         style="stop-color:#ffffff;stop-opacity:0;" />
    </linearGradient>
    <linearGradient
       id="linearGradient3777">
      <stop
         id="stop3779"
         offset="0"
         style="stop-color:#e0dd00;stop-opacity:1;" />
      <stop
         id="stop3781"
         offset="1"
         style="stop-color:#000000;stop-opacity:0;" />
    </linearGradient>
  </defs>
  <g
     id="g33" />
  <g
     id="g3121">
    <g
       inkscape:label="shadows"
       id="layer2">
      <rect
         ry="13.03658"
         rx="13.03658"
         y="1"
         x="1"
         height="46"
         width="46"
         id="rect3007"
         style="opacity:0.1;fill:#000000;fill-opacity:1;fill-rule:nonzero;stroke:none" />
      <rect
         style="opacity:0.1;fill:#000000;fill-opacity:1;fill-rule:nonzero;stroke:none"
         id="rect3011"
         width="47"
         height="47"
         x="0.5"
         y="0.5"
         rx="13.319984"
         ry="13.319984" />
      <rect
         style="opacity:0.1;fill:#000000;fill-opacity:1;fill-rule:nonzero;stroke:none"
         id="rect3013"
         width="46.5"
         height="46.5"
         x="0.75"
         y="0.75"
         rx="13.178282"
         ry="13.178282" />
    </g>
    <g
       style="display:inline"
       inkscape:label="background-color"
       id="layer1">
      <rect
         transform="matrix(0,-1,1,0,0,0)"
         ry="12.753176"
         rx="12.753176"
         y="1.5"
         x="-46.5"
         height="45"
         width="45"
         id="rect2988"
         style="fill:#ececec;fill-opacity:1;fill-rule:nonzero;stroke:none" />
    </g>
  </g>
  <g
     id="g3129"
     transform="translate(0,-0.5)">
    <g
       id="g3131"
       clip-path="url(#clipPath-717644577)">
      <!-- color: #eeeeee -->
      <g
         id="g3133">
        <path
           id="path3135"
           d="m 17,28 -6,-5 8,-2 -2,7"
           inkscape:connector-curvature="0"
           style="fill:#eb805f;fill-opacity:1;fill-rule:nonzero;stroke:none" />
        <path
           id="path3137"
           d="m 31,28 6,-5 -8,-2 1.996,7"
           inkscape:connector-curvature="0"
           style="fill:#eb805f;fill-opacity:1;fill-rule:nonzero;stroke:none" />
        <path
           id="path3139"
           d="M 15,16 16.234,23 22,20 15,16"
           inkscape:connector-curvature="0"
           style="fill:#eb805f;fill-opacity:1;fill-rule:nonzero;stroke:none" />
        <path
           id="path3141"
           d="M 33,16 31.766,23 26,20 33,16"
           inkscape:connector-curvature="0"
           style="fill:#eb805f;fill-opacity:1;fill-rule:nonzero;stroke:none" />
        <path
           id="path3143"
           d="m 24,13 -5,8 10,0 -5,-8"
           inkscape:connector-curvature="0"
           style="fill:#eb805f;fill-opacity:1;fill-rule:nonzero;stroke:none" />
        <path
           id="path3145"
           d="m 33,27 c 0,4.969 -4.03,9 -9,9 -4.969,0 -9,-4.03 -9,-9 0,-4.969 4.03,-9 9,-9 4.969,0 9,4.03 9,9 m 0,0"
           inkscape:connector-curvature="0"
           style="fill:#ffcc00;fill-opacity:1;fill-rule:nonzero;stroke:none" />
        <path
           id="path3147"
           d="m 21.992,25 c 0,0.551 -0.445,1 -0.996,1 C 20.445,26 20,25.551 20,25 c 0,-0.551 0.445,-1 0.996,-1 0.551,0 0.996,0.449 0.996,1 m 0,0"
           inkscape:connector-curvature="0"
           style="fill:#2d2d2d;fill-opacity:1;fill-rule:nonzero;stroke:none" />
        <path
           id="path3149"
           d="m 27,24 c -0.551,0 -1,0.449 -1,1 l 2,0 c 0,-0.551 -0.449,-1 -1,-1 m 0,0"
           inkscape:connector-curvature="0"
           style="fill:#2d2d2d;fill-opacity:1;fill-rule:nonzero;stroke:none" />
        <path
           id="path3151"
           stroke-miterlimit="4"
           transform="scale(3.543307,3.543307)"
           d="M 5.672,8.382 C 5.786,8.601 5.97,8.782 6.191,8.891 6.409,9 6.667,9.038 6.91,8.996 7.155,8.954 7.387,8.831 7.549,8.641 7.688,8.48 7.772,8.276 7.81,8.068 7.831,7.963 7.841,7.856 7.84,7.748"
           inkscape:connector-curvature="0"
           style="fill:none;stroke:#2d2d2d;stroke-width:0.28200001;stroke-linecap:butt;stroke-linejoin:miter;stroke-miterlimit:4;stroke-opacity:1" />
        <path
           id="path3153"
           stroke-miterlimit="4"
           d="m 21,21.25 c -0.359,0.074 -0.703,0.238 -0.98,0.477 -0.102,0.086 -0.195,0.18 -0.281,0.277 -0.473,0.551 -0.742,1.273 -0.738,1.996"
           inkscape:connector-curvature="0"
           style="fill:none;stroke:#2d2d2d;stroke-width:1;stroke-linecap:butt;stroke-linejoin:miter;stroke-miterlimit:4;stroke-opacity:1" />
      </g>
    </g>
  </g>
</svg>
